X:1
T:Title
%%score [ 1 2 3 4 ]
L:1/8
Q:1/4=96
M:4/4
K:Db
V:1 treble-8 nm="Tenor I"
V:2 treble-8 nm="Tenor II"
V:3 bass nm="Bass I"
V:4 bass nm="Bass II"
V:1
!p! A2 FA d3 d | d2 c2 z2 A2 |!<(! A3 d!<)! g2!>(! f2 | f2!>)! e2 z2 d2 |"^cresc." A3 B _c2 c2 | %5
w: Weh dass wir schei- den|müs- sen Lass|mich noch ein- mal|küs- sen, Ich|muss an Kai- ser's|
 _c2 B2 z2 B2 |!f! B3 =c d2 d2 | d2 c2 z2 A2 |[M:3/4]!p! A4 d2 | f4 d2 | d4 B2 |!f! A2 z2 d2 | %12
w: Sei- ten in's|fal- sche Welsch- land|rei- ten. Fahr-|wohl, fahr-|­wohl mein|ar- mes|Lieb. Fahr-|
 g4 f2 | f2 e2!p! d2 |!>(! d4 c2!>)! | d4 z2 | %16
w: wohl, fahr-|wohl _ mein|ar- mes|Lieb.|
V:2
!p! F2 FF A3 A | A2 A2 z2 A2 |!<(! A3 A!<)! d2!>(! d2 | d2!>)! c2 z2 A2 |"^cresc." F3 G A2 A2 | %5
w: Weh dass wir schei- den|müs- sen Lass|mich noch ein- mal|küs- sen, Ich|muss an Kai- ser's|
 A2 G2 z2 =G2 |!f! =G3 A B2 B2 | B2 A2 z2 A2 |[M:3/4]!p! A4 A2 | A4 A2 | B4 G2 |!f! F2 z2 d2 | %12
w: Sei- ten in's|fal- sche Welsch- land|rei- ten. Fahr-|wohl, fahr-|­wohl mein|ar- mes|Lieb. Fahr-|
 c4 d2 | B4!p! B2 |!>(! A4 A2!>)! | A4 z2 | %16
w: wohl, fahr-|wohl mein|ar- mes|Lieb.|
V:3
!p! D,2 D,D, F,3 F, | G,2 G,2 z2 G,2 |!<(! F,3 F,!<)! B,2!>(! A,2 | A,2!>)! A,2 z2 F,2 | %4
w: Weh dass wir schei- den|müs- sen Lass|mich noch ein- mal|küs- sen, Ich|
"^cresc." D,3 D, D,2 D,2 | D,2 D,2 z2 E,2 |!f! E,3 E, E,2 E,2 | E,2 E,2 z2 G,2 | %8
w: muss an Kai- ser's|Sei- ten in's|fal- sche Welsch- land|rei- ten. Fahr-|
[M:3/4]!p! F,4 F,2 | A,4 F,2 | G,4 D,2 |!f! D,2 z2 A,2 | A,4 A,2 | (A,2 G,2)!p! E,2 | %14
w: wohl, fahr-|­wohl mein|ar- mes|Lieb. Fahr-|wohl, fahr-|wohl _ mein|
!>(! F,4 G,2!>)! | F,4 z2 | %16
w: ar- mes|Lieb.|
V:4
!p! D,2 D,D, D,3 D, | E,2 E,2 z2 E,2 |!<(! D,3 D,!<)! D,2!>(! D,2 | A,,2!>)! A,,2 z2 D,2 | %4
w: Weh dass wir schei- den|müs- sen Lass|mich noch ein- mal|küs- sen, Ich|
"^cresc." D,3 D, D,2 F,,2 | G,,2 G,,2 z2 E,2 |!f! E,3 E, E,2 =G,,2 | A,,2 A,,2 z2 E,2 | %8
w: muss an Kai- ser's|Sei- ten in's|fal- sche Welsch- land|rei- ten. Fahr-|
[M:3/4]!p! D,4 D,2 | D,4 D,2 | G,,4 B,,2 |!f! D,2 z2 F,2 | E,4 D,2 | G,,4!p! G,,2 | %14
w: wohl, fahr-|­wohl mein|ar- mes|Lieb. Fahr-|wohl, fahr-|wohl mein|
!>(! A,,4 A,,2!>)! | D,,4 z2 | %16
w: ar- mes|Lieb.|

